public/assets/wallIns2.svg

<svg width="144" height="91" viewBox="0 0 144 91" fill="none" xmlns="http://www.w3.org/2000/svg">
<path d="M82.5323 34.7075L7.11182 45.989V88.1111L82.5323 34.7075Z" fill="url(#paint0_linear_57_728)"/>
<path d="M91.6979 33.3762L118.255 12.1104L136.653 45.2039V88.1111H7.09521" stroke="#062023" stroke-width="0.5" stroke-miterlimit="10" stroke-linecap="round" stroke-linejoin="round"/>
<path d="M3.2207 90.7058L130.287 1" stroke="#062023" stroke-width="0.5" stroke-miterlimit="10" stroke-linecap="round" stroke-linejoin="round"/>
<path d="M92.6538 32.728L136.09 44.0437" stroke="#062023" stroke-width="0.5" stroke-miterlimit="10" stroke-linecap="round" stroke-linejoin="round"/>
<path d="M75.0039 40.1694V51.7923" stroke="#062023" stroke-width="0.5" stroke-miterlimit="10" stroke-linecap="round" stroke-linejoin="round"/>
<path d="M76.8307 54.5233C77.3086 55.7521 76.5235 57.1858 75.1923 57.3052C75.124 57.3052 75.0728 57.3223 75.0045 57.3223C74.9363 57.3223 74.8851 57.3223 74.8168 57.3052C73.5026 57.1858 72.7005 55.7863 73.1783 54.5403L73.6733 53.2432C73.7586 53.0043 73.8098 52.7653 73.8098 52.5093V52.2021C73.8098 51.9802 73.9805 51.8096 74.2024 51.8096H75.8067C76.0286 51.8096 76.1993 51.9802 76.1993 52.2021V52.5093C76.1993 52.7653 76.2505 53.0213 76.3358 53.2603L76.8307 54.5233Z" stroke="#062023" stroke-width="0.5" stroke-miterlimit="10" stroke-linecap="round" stroke-linejoin="round"/>
<path d="M61.0102 74.9015L58.3306 75.9938C57.2554 76.4376 56.7433 77.6493 57.153 78.7246L59.3205 84.3739C59.3888 84.5787 59.5936 84.6981 59.7984 84.6981H90.127C90.3318 84.6981 90.5195 84.5616 90.6049 84.3739L92.8236 78.5539C93.2162 77.5469 92.7724 76.4034 91.8167 75.9085L89.3248 74.6284" stroke="#062023" stroke-width="0.5" stroke-miterlimit="10" stroke-linecap="round" stroke-linejoin="round"/>
<path d="M74.2386 79.4069H61.7624C61.4039 79.4069 61.1309 79.1168 61.1309 78.7755V73.5358C61.1309 73.1774 61.421 72.9043 61.7624 72.9043H74.2386C74.597 72.9043 74.87 73.1944 74.87 73.5358V78.7755C74.8871 79.1168 74.597 79.4069 74.2386 79.4069Z" stroke="#062023" stroke-width="0.5" stroke-miterlimit="10" stroke-linecap="round" stroke-linejoin="round"/>
<path d="M74.3234 82.9228H60.277C59.9186 82.9228 59.6455 82.6327 59.6455 82.2914V80.9601C59.6455 80.6017 59.9356 80.3286 60.277 80.3286H74.3234C74.6818 80.3286 74.9549 80.6188 74.9549 80.9601V82.2914C74.9719 82.6498 74.6818 82.9228 74.3234 82.9228Z" stroke="#062023" stroke-width="0.5" stroke-miterlimit="10" stroke-linecap="round" stroke-linejoin="round"/>
<path d="M90.0602 82.9228H76.0138C75.6554 82.9228 75.3823 82.6327 75.3823 82.2914V80.9601C75.3823 80.6017 75.6725 80.3286 76.0138 80.3286H90.0602C90.4186 80.3286 90.6917 80.6188 90.6917 80.9601V82.2914C90.6917 82.6498 90.4186 82.9228 90.0602 82.9228Z" stroke="#062023" stroke-width="0.5" stroke-miterlimit="10" stroke-linecap="round" stroke-linejoin="round"/>
<path d="M88.4705 79.4069H75.9943C75.6359 79.4069 75.3628 79.1168 75.3628 78.7755V73.5358C75.3628 73.1774 75.6529 72.9043 75.9943 72.9043H88.4705C88.8289 72.9043 89.102 73.1944 89.102 73.5358V78.7755C89.119 79.1168 88.8289 79.4069 88.4705 79.4069Z" stroke="#062023" stroke-width="0.5" stroke-miterlimit="10" stroke-linecap="round" stroke-linejoin="round"/>
<path d="M60.0368 84.6978L59.832 87.8381C59.832 87.9235 59.9344 87.9405 59.9686 87.8723L61.334 84.6978" stroke="#062023" stroke-width="0.5" stroke-miterlimit="10" stroke-linecap="round" stroke-linejoin="round"/>
<path d="M89.906 84.6978L90.1108 87.8381C90.1108 87.9235 90.0084 87.9405 89.9743 87.8723L88.6089 84.6978" stroke="#062023" stroke-width="0.5" stroke-miterlimit="10" stroke-linecap="round" stroke-linejoin="round"/>
<path d="M45.7328 88.0942H43.1557C42.4901 88.0942 41.9098 87.6846 41.7903 87.1213L41.1417 83.8785C40.9881 83.1617 41.6367 82.4961 42.5071 82.4961H46.3985C47.2518 82.4961 47.9004 83.1617 47.7639 83.8785L47.1153 87.1213C46.9788 87.6846 46.3985 88.0942 45.7328 88.0942Z" stroke="#062023" stroke-width="0.5" stroke-miterlimit="10" stroke-linecap="round" stroke-linejoin="round"/>
<path d="M45.1888 82.4963C45.1888 82.4963 45.1546 81.6088 45.8203 80.8919C46.4859 80.1751 48.1926 77.7174 48.9948 77.4955C49.7969 77.2737 51.5719 77.3419 51.5719 77.3419C51.5719 77.3419 49.6775 77.4614 49.1996 78.1782C48.7217 78.8951 48.1244 80.6701 46.6736 81.148C46.1275 81.3186 45.8373 82.4792 45.8373 82.4792" stroke="#062023" stroke-width="0.5" stroke-miterlimit="10" stroke-linecap="round" stroke-linejoin="round"/>
<path d="M44.6401 82.3769C44.6401 82.3769 44.862 78.1271 47.149 76.4887C48.2072 75.7377 48.5144 74.7478 49.4873 74.5601C48.9752 75.1233 49.6238 76.4716 48.2925 77.069C48.2925 77.069 47.2856 77.325 46.8247 78.8098C46.5346 79.7315 45.8178 80.875 45.8178 80.875" stroke="#062023" stroke-width="0.5" stroke-miterlimit="10" stroke-linecap="round" stroke-linejoin="round"/>
<path d="M44.898 80.5678C44.898 80.5678 44.659 76.7789 43.7545 76.2669C42.8499 75.7719 41.5016 75.1746 40.6482 75.6524C39.9484 76.045 39.6412 76.8813 38.9927 77.052C39.846 77.0178 40.9896 75.3111 42.0136 75.9085C42.4744 76.1815 44.0958 76.8642 44.4371 82.3599" stroke="#062023" stroke-width="0.5" stroke-miterlimit="10" stroke-linecap="round" stroke-linejoin="round"/>
<path d="M43.293 82.377C43.293 82.377 42.2519 79.6121 41.4497 79.0318C40.9889 78.7075 39.0603 77.8712 37.7461 77.9395C38.1557 78.315 38.9237 79.1171 39.5552 79.2366C41.023 79.4926 42.5079 81.1823 42.9687 82.377" stroke="#062023" stroke-width="0.5" stroke-miterlimit="10" stroke-linecap="round" stroke-linejoin="round"/>
<path d="M44.1635 82.3769C44.1635 82.3769 43.4125 78.7416 42.6445 78.1101C41.8935 77.4786 41.3986 77.0861 40.6647 76.3692C39.9479 75.6524 38.3094 74.9697 37.8145 74.9697C38.7532 74.9697 39.1286 75.6012 39.214 75.8572C39.6919 77.1373 41.4498 77.7688 41.757 78.6733C42.2178 80.0729 43.4296 81.1481 43.3784 82.3769" stroke="#062023" stroke-width="0.5" stroke-miterlimit="10" stroke-linecap="round" stroke-linejoin="round"/>
<path d="M44.5908 78.1784C44.5908 78.1784 44.8127 76.4034 45.5637 75.6524C45.7514 75.4647 45.9221 74.9015 45.9221 74.6113C45.8879 75.277 46.4853 76.5399 46.2293 77.4274" stroke="#062023" stroke-width="0.5" stroke-miterlimit="10" stroke-linecap="round" stroke-linejoin="round"/>
<path d="M123.905 88.094V30.2017" stroke="#062023" stroke-width="0.5" stroke-miterlimit="10" stroke-linecap="round" stroke-linejoin="round"/>
<path d="M119.893 79.219V30.2017" stroke="#062023" stroke-width="0.5" stroke-miterlimit="10" stroke-linecap="round" stroke-linejoin="round"/>
<path d="M115.898 78.0243V30.2017" stroke="#062023" stroke-width="0.5" stroke-miterlimit="10" stroke-linecap="round" stroke-linejoin="round"/>
<path d="M111.889 76.1469V30.2017" stroke="#062023" stroke-width="0.5" stroke-miterlimit="10" stroke-linecap="round" stroke-linejoin="round"/>
<path d="M107.878 71.0442V30.2021" stroke="#062023" stroke-width="0.5" stroke-miterlimit="10" stroke-linecap="round" stroke-linejoin="round"/>
<path d="M123.903 79.9188C119.892 79.9358 107.894 76.693 107.894 70.8219C107.894 65.5481 123.903 66.538 123.903 61.4178C123.903 56.4512 107.894 57.0315 107.894 51.8089C107.894 46.1426 123.903 46.4668 123.903 41.5002C123.903 36.5678 107.894 30.2188 107.894 30.2188" stroke="#062023" stroke-width="0.5" stroke-miterlimit="10" stroke-linecap="round" stroke-linejoin="round"/>
<path d="M123.904 30.2021H107.878" stroke="#062023" stroke-width="0.5" stroke-miterlimit="10" stroke-linecap="round" stroke-linejoin="round"/>
<path d="M91.1841 31.9432L1.00049 45.4093V46.9112L91.6962 33.3768L121.683 9.29488L142.301 44.7437L143 43.2418L121.956 7.04199L91.1841 31.9432Z" stroke="#062023" stroke-width="0.5" stroke-miterlimit="10" stroke-linecap="round" stroke-linejoin="round"/>
<path d="M91.1841 31.9432L1.00049 45.4093L35.1351 25.5259L121.956 7.04199L91.1841 31.9432Z" stroke="#062023" stroke-width="0.5" stroke-miterlimit="10" stroke-linecap="round" stroke-linejoin="round"/>
<path d="M136.67 45.068L142.302 44.7437L121.685 9.29492L118.254 12.111L136.67 45.068Z" stroke="#062023" stroke-width="0.5" stroke-miterlimit="10" stroke-linecap="round" stroke-linejoin="round"/>
<defs>
<linearGradient id="paint0_linear_57_728" x1="-12.7318" y1="61.4103" x2="106.321" y2="61.4103" gradientUnits="userSpaceOnUse">
<stop stop-color="#18808A"/>
<stop offset="1" stop-color="#28C985"/>
</linearGradient>
</defs>
</svg>

<svg width="144" height="91" fill="none" xmlns="http://www.w3.org/2000/svg"><path d="M82.532 34.708 7.112 45.989v42.122l75.42-53.404z" fill="url(#a)"/><path d="m91.698 33.376 26.557-21.266 18.398 33.094V88.11H7.095M3.22 90.706 130.288 1M92.654 32.728l43.436 11.316M75.004 40.17v11.622" stroke="#062023" stroke-width=".5" stroke-miterlimit="10" stroke-linecap="round" stroke-linejoin="round"/><path d="M76.83 54.523c.479 1.23-.306 2.663-1.638 2.782-.068 0-.12.017-.188.017s-.119 0-.187-.017c-1.314-.12-2.116-1.519-1.639-2.765l.495-1.297c.086-.239.137-.478.137-.734v-.307c0-.222.17-.392.392-.392h1.605c.222 0 .392.17.392.392v.307c0 .256.052.512.137.751l.495 1.263zM61.01 74.901l-2.68 1.093a2.13 2.13 0 0 0-1.177 2.73l2.168 5.65a.498.498 0 0 0 .477.324h30.329a.542.542 0 0 0 .478-.324l2.219-5.82a2.122 2.122 0 0 0-1.007-2.645l-2.492-1.28" stroke="#062023" stroke-width=".5" stroke-miterlimit="10" stroke-linecap="round" stroke-linejoin="round"/><path d="M74.239 79.407H61.762a.63.63 0 0 1-.631-.632v-5.24a.63.63 0 0 1 .631-.63H74.24a.63.63 0 0 1 .631.63v5.24c.017.342-.273.632-.631.632zM74.323 82.923H60.277a.63.63 0 0 1-.632-.632v-1.33a.63.63 0 0 1 .632-.632h14.046a.63.63 0 0 1 .632.631v1.331c.017.359-.273.632-.632.632zM90.06 82.923H76.014a.63.63 0 0 1-.632-.632v-1.33a.63.63 0 0 1 .632-.632H90.06a.63.63 0 0 1 .632.631v1.331a.62.62 0 0 1-.632.632zM88.47 79.407H75.995a.63.63 0 0 1-.631-.632v-5.24a.63.63 0 0 1 .631-.63h12.477a.63.63 0 0 1 .631.63v5.24c.017.342-.273.632-.632.632zM60.037 84.698l-.205 3.14c0 .086.102.103.137.034l1.365-3.174M89.906 84.698l.205 3.14c0 .086-.103.103-.137.034l-1.365-3.174M45.733 88.094h-2.577c-.666 0-1.246-.41-1.366-.973l-.648-3.242c-.154-.717.495-1.383 1.365-1.383H46.4c.853 0 1.501.666 1.365 1.383l-.649 3.242c-.136.564-.717.973-1.382.973zM45.189 82.496s-.034-.887.631-1.604c.666-.717 2.373-3.175 3.175-3.396.802-.222 2.577-.154 2.577-.154s-1.895.12-2.372.836c-.478.717-1.076 2.492-2.526 2.97-.547.17-.837 1.331-.837 1.331" stroke="#062023" stroke-width=".5" stroke-miterlimit="10" stroke-linecap="round" stroke-linejoin="round"/><path d="M44.64 82.377s.222-4.25 2.509-5.888c1.058-.751 1.365-1.741 2.338-1.929-.512.563.137 1.912-1.195 2.509 0 0-1.006.256-1.467 1.74-.29.922-1.007 2.066-1.007 2.066" stroke="#062023" stroke-width=".5" stroke-miterlimit="10" stroke-linecap="round" stroke-linejoin="round"/><path d="M44.898 80.568s-.239-3.79-1.144-4.301c-.904-.495-2.252-1.092-3.106-.615-.7.393-1.007 1.23-1.655 1.4.853-.034 1.997-1.74 3.02-1.144.461.273 2.083.956 2.424 6.452" stroke="#062023" stroke-width=".5" stroke-miterlimit="10" stroke-linecap="round" stroke-linejoin="round"/><path d="M43.293 82.377s-1.041-2.765-1.843-3.345c-.461-.325-2.39-1.16-3.704-1.093.41.376 1.178 1.178 1.81 1.298 1.467.256 2.952 1.945 3.413 3.14" stroke="#062023" stroke-width=".5" stroke-miterlimit="10" stroke-linecap="round" stroke-linejoin="round"/><path d="M44.163 82.377s-.75-3.635-1.518-4.267c-.752-.631-1.246-1.024-1.98-1.74-.717-.718-2.356-1.4-2.85-1.4.938 0 1.314.631 1.399.887.478 1.28 2.236 1.912 2.543 2.816.46 1.4 1.673 2.475 1.621 3.704M44.59 78.178s.223-1.775.974-2.526c.187-.187.358-.75.358-1.04-.034.665.563 1.928.307 2.815M123.905 88.094V30.202M119.893 79.219V30.202M115.898 78.024V30.202M111.889 76.147V30.202M107.878 71.044V30.202M123.903 79.919c-4.011.017-16.009-3.226-16.009-9.097 0-5.274 16.009-4.284 16.009-9.404 0-4.967-16.009-4.386-16.009-9.61 0-5.665 16.009-5.341 16.009-10.308 0-4.932-16.009-11.281-16.009-11.281M123.904 30.202h-16.026" stroke="#062023" stroke-width=".5" stroke-miterlimit="10" stroke-linecap="round" stroke-linejoin="round"/><path d="M91.184 31.943 1 45.41v1.502l90.696-13.534 29.987-24.082 20.618 35.449.699-1.502-21.044-36.2-30.772 24.901z" stroke="#062023" stroke-width=".5" stroke-miterlimit="10" stroke-linecap="round" stroke-linejoin="round"/><path d="M91.184 31.943 1 45.41l34.135-19.883 86.821-18.484-30.772 24.901zM136.67 45.068l5.632-.324-20.617-35.45-3.431 2.817 18.416 32.957z" stroke="#062023" stroke-width=".5" stroke-miterlimit="10" stroke-linecap="round" stroke-linejoin="round"/><defs><linearGradient id="a" x1="-12.732" y1="61.41" x2="106.321" y2="61.41" gradientUnits="userSpaceOnUse"><stop stop-color="#18808A"/><stop offset="1" stop-color="#28C985"/></linearGradient></defs></svg>
